X: 3
T: Spórt
R: jig
M: 6/8
L: 1/8
K: Dmaj
AdF A2 A|GBE G2 G|AdF A2 A|GEd cEA|AdF A2 A|GBE G2 A|cdc A2A|GEA D3:||:cBc dcd|cec A2g|fed ged|cec A3 |fef gfg|faf d2e|fdF AFA|GEA D2 A:||:AGG AEE|AGE EDD|AGG c2 e|dcA AGE|AGG AEE|AGE EDD|cdc A2G|EAA D3 :|


Tune 870	Setting 28375

